public/assets/images/icons/red/remove/folder-lock-empty2.svg

<svg width="16" height="16" xmlns="http://www.w3.org/2000/svg" viewBox="0 0 16 16" shape-rendering="geometricPrecision" fill="#cb1800"><defs><mask id="a"><rect fill="#fff" width="100%" height="100%"/><path fill="#000" d="M8.986 1.143H17v3.565H8.986z"/></mask></defs><path d="M9.986 2.143H16v1.565H9.986z"/><g mask="url(#a)"><path d="M8.001 12.153a.466.466 0 0 0 .466-.466V10.4a.467.467 0 1 0-.935 0v1.287a.469.469 0 0 0 .469.466z"/><path d="M7.394 4.755l-.816-1.923h-3.78l-.816 1.923H.861V14h14.278V4.755H7.394zM5.997 7.961a2.003 2.003 0 0 1 4.005 0v.618h-.76v-.618a1.242 1.242 0 1 0-2.485 0v.618h-.76v-.618zm4.656 5.018H5.346V9.106h5.307v3.873z"/></g></svg>

<?xml version="1.0"?><!DOCTYPE svg PUBLIC "-//W3C//DTD SVG 1.1//EN" "http://www.w3.org/Graphics/SVG/1.1/DTD/svg11.dtd"><svg width="16px" height="16px" xmlns="http://www.w3.org/2000/svg" viewBox="0 0 16 16" shape-rendering="geometricPrecision" fill="#cb1800"><defs><mask id="remove-path"><rect fill="#fff" width="100%" height="100%"/><rect x="8.986" y="1.143" width="8.014" height="3.565" fill="#000"/></mask></defs><g fill="#cb1800"><rect x="9.986" y="2.143" width="6.014" height="1.565"/></g><g mask="url(#remove-path)"><g><path d="M8.001,12.153c0.258,0,0.466-0.209,0.466-0.466v-1.287c0-0.257-0.208-0.466-0.468-0.466 c-0.257,0-0.467,0.209-0.467,0.466v1.287C7.533,11.944,7.743,12.153,8.001,12.153z"/><path d="M7.394,4.755L6.578,2.832H2.798L1.982,4.755H0.861V14h14.278V4.755H7.394z M5.997,7.961c0-1.106,0.897-2.003,2.003-2.003 c1.106,0,2.002,0.897,2.002,2.003v0.618h-0.76V7.961c0-0.687-0.556-1.243-1.242-1.243c-0.686,0-1.243,0.555-1.243,1.243v0.618 h-0.76V7.961z M10.653,12.979H5.346V9.106h5.307V12.979z"/></g></g></svg>
